X: 32574
T: Planxty Irwin
R: waltz
M: 3/4
K: Cmajor
AB|c2 B ABc|G2F EDC|F2 D EFG|B,2 CD EG|c2B ABc|
G2F EDC|F2 D EF G|C2B, C2 G|c2 B ABc|
G2F EDC|F2 D EFG|B,2 CD EG|c2 B ABc|
G2F EDC|F2 D EFG|C2B, C2 G|c2c cBc|
d2d dBG|e2 e dec|BcA GAB|c2 B ABc|
G2F EDC|F2 D EFG|C2B, C2 G|c2c cBc|
d2e/d/ dBG|e2 e dec|BcA GAB|c2 B ABc|
G2F EDC|F2 D EFG|C2B, C2 G|

